TLatex/plain_lva.svg

<svg xmlns="http://www.w3.org/2000/svg" viewBox="0 0 1200 800" preserveAspectRatio="none" width="1200" height="800">
 <path d="M0,0H1200V800H0Z" style="fill: white;"></path>
 <g>
  <g transform="translate(120,80)">
   <path d="M0,0H960V640H0Z" style="fill: white; stroke: black; stroke-width: 1;"></path>
   <g>
    <path d="M0,0v640M96,0v640M192,0v640M288,0v640M384,0v640M480,0v640M576,0v640M672,0v640M768,0v640M864,0v640M960,0v640" style="stroke: black; stroke-width: 1; stroke-dasharray: 1,2;"></path>
    <path d="M0,640h960M0,576h960M0,512h960M0,448h960M0,384h960M0,320h960M0,256h960M0,192h960M0,128h960M0,64h960M0,0h960" style="stroke: black; stroke-width: 1; stroke-dasharray: 1,2;"></path>
   </g>
   <g>
    <g transform="translate(0,640)">
     <path d="M0,0h960M0,-24v24m19,-12v12m19,-12v12m20,-12v12m19,-12v12m19,-24v24m19,-12v12m19,-12v12m20,-12v12m19,-12v12m19,-24v24m19,-12v12m19,-12v12m20,-12v12m19,-12v12m19,-24v24m19,-12v12m19,-12v12m20,-12v12m19,-12v12m19,-24v24m19,-12v12m19,-12v12m20,-12v12m19,-12v12m19,-24v24m19,-12v12m19,-12v12m20,-12v12m19,-12v12m19,-24v24m19,-12v12m19,-12v12m20,-12v12m19,-12v12m19,-24v24m19,-12v12m19,-12v12m20,-12v12m19,-12v12m19,-24v24m19,-12v12m19,-12v12m20,-12v12m19,-12v12m19,-24v24m19,-12v12m19,-12v12m20,-12v12m19,-12v12m19,-24v24" style="stroke: black; stroke-width: 1;"></path>
     <g font-family="Arial" font-size="28" space="preserve" fill="black" text-anchor="middle">
      <text dy=".8em" transform="translate(0,6)">
       0
      </text>
      <text dy=".8em" transform="translate(96,6)">
       0.1
      </text>
      <text dy=".8em" transform="translate(192,6)">
       0.2
      </text>
      <text dy=".8em" transform="translate(288,6)">
       0.3
      </text>
      <text dy=".8em" transform="translate(384,6)">
       0.4
      </text>
      <text dy=".8em" transform="translate(480,6)">
       0.5
      </text>
      <text dy=".8em" transform="translate(576,6)">
       0.6
      </text>
      <text dy=".8em" transform="translate(672,6)">
       0.7
      </text>
      <text dy=".8em" transform="translate(768,6)">
       0.8
      </text>
      <text dy=".8em" transform="translate(864,6)">
       0.9
      </text>
      <text dy=".8em" transform="translate(960,6)">
       1
      </text>
     </g>
    </g>
    <g>
     <path d="M0,0v640M36,640h-36m18,-13h-18m18,-13h-18m18,-12h-18m18,-13h-18m36,-13h-36m18,-13h-18m18,-13h-18m18,-12h-18m18,-13h-18m36,-13h-36m18,-13h-18m18,-13h-18m18,-12h-18m18,-13h-18m36,-13h-36m18,-13h-18m18,-13h-18m18,-12h-18m18,-13h-18m36,-13h-36m18,-13h-18m18,-13h-18m18,-12h-18m18,-13h-18m36,-13h-36m18,-13h-18m18,-13h-18m18,-12h-18m18,-13h-18m36,-13h-36m18,-13h-18m18,-13h-18m18,-12h-18m18,-13h-18m36,-13h-36m18,-13h-18m18,-13h-18m18,-12h-18m18,-13h-18m36,-13h-36m18,-13h-18m18,-13h-18m18,-12h-18m18,-13h-18m36,-13h-36m18,-13h-18m18,-13h-18m18,-12h-18m18,-13h-18m36,-13h-36" style="stroke: black; stroke-width: 1;"></path>
     <g font-family="Arial" font-size="28" space="preserve" fill="black" text-anchor="end">
      <text dy=".4em" transform="translate(-4,640)">
       0
      </text>
      <text dy=".4em" transform="translate(-4,576)">
       0.1
      </text>
      <text dy=".4em" transform="translate(-4,512)">
       0.2
      </text>
      <text dy=".4em" transform="translate(-4,448)">
       0.3
      </text>
      <text dy=".4em" transform="translate(-4,384)">
       0.4
      </text>
      <text dy=".4em" transform="translate(-4,320)">
       0.5
      </text>
      <text dy=".4em" transform="translate(-4,256)">
       0.6
      </text>
      <text dy=".4em" transform="translate(-4,192)">
       0.7
      </text>
      <text dy=".4em" transform="translate(-4,128)">
       0.8
      </text>
      <text dy=".4em" transform="translate(-4,64)">
       0.9
      </text>
      <text dy=".4em" transform="translate(-4)">
       1
      </text>
     </g>
    </g>
   </g>
   <g>
    <g font-family="Arial" font-size="14" space="preserve" font-weight="bold">
     <text fill="black" text-anchor="start" dy=".8em" transform="translate(192,64)">
      K_{S}
     </text>
    </g>
    <g font-family="Arial" font-size="14" space="preserve" font-weight="bold">
     <text fill="black" text-anchor="start" dy=".8em" transform="translate(288,64)">
      K^{*0}
     </text>
    </g>
    <g font-family="Arial" font-size="14" space="preserve" font-weight="bold">
     <text fill="black" text-anchor="start" dy=".8em" transform="translate(192,128)">
      K_{S}... K^{*0}... #frac{2s}{#pi#alpha^{2}}#frac{d#sigma}{dcos#theta} (e^{+}e^{-} #rightarrow f#bar{f} ) =#left| #frac{1}{1 - #Delta#alpha} #right|^{2} (1+cos^{2}#theta)
     </text>
    </g>
    <g font-family="Arial" font-size="14" space="preserve" font-weight="bold">
     <text fill="black" text-anchor="start" dy=".4em" transform="translate(192,256)">
      K_{S}
     </text>
    </g>
    <g font-family="Arial" font-size="14" space="preserve" font-weight="bold">
     <text fill="black" text-anchor="start" dy=".4em" transform="translate(288,256)">
      K^{*0}
     </text>
    </g>
    <g font-family="Arial" font-size="14" space="preserve" font-weight="bold">
     <text fill="black" text-anchor="start" dy=".4em" transform="translate(192,320)">
      K_{S}... K^{*0}... #frac{2s}{#pi#alpha^{2}}#frac{d#sigma}{dcos#theta} (e^{+}e^{-} #rightarrow f#bar{f} ) =#left| #frac{1}{1 - #Delta#alpha} #right|^{2} (1+cos^{2}#theta)
     </text>
    </g>
    <g font-family="Arial" font-size="14" space="preserve" font-weight="bold">
     <text fill="black" text-anchor="start" transform="translate(192,384)">
      K_{S}
     </text>
    </g>
    <g font-family="Arial" font-size="14" space="preserve" font-weight="bold">
     <text fill="black" text-anchor="start" transform="translate(288,384)">
      K^{*0}
     </text>
    </g>
    <g font-family="Arial" font-size="14" space="preserve" font-weight="bold">
     <text fill="black" text-anchor="start" transform="translate(192,448)">
      K_{S}... K^{*0}... #frac{2s}{#pi#alpha^{2}}#frac{d#sigma}{dcos#theta} (e^{+}e^{-} #rightarrow f#bar{f} ) =#left| #frac{1}{1 - #Delta#alpha} #right|^{2} (1+cos^{2}#theta)
     </text>
    </g>
    <g font-family="Arial" font-size="14" space="preserve" font-weight="bold">
     <text fill="black" text-anchor="start" transform="translate(192,512)">
      K_{S}
     </text>
    </g>
    <g font-family="Arial" font-size="14" space="preserve" font-weight="bold">
     <text fill="black" text-anchor="start" transform="translate(288,512)">
      K^{*0}
     </text>
    </g>
    <g font-family="Arial" font-size="14" space="preserve" font-weight="bold">
     <text fill="black" text-anchor="start" transform="translate(192,576)">
      K_{S}... K^{*0}... #frac{2s}{#pi#alpha^{2}}#frac{d#sigma}{dcos#theta} (e^{+}e^{-} #rightarrow f#bar{f} ) =#left| #frac{1}{1 - #Delta#alpha} #right|^{2} (1+cos^{2}#theta)
     </text>
    </g>
    <g font-family="Arial" font-size="14" space="preserve" font-weight="bold" font-style="oblique">
     <text fill="black" text-anchor="start" dy=".4em" transform="translate(96,128)">
      13
     </text>
    </g>
    <g font-family="Arial" font-size="14" space="preserve" font-weight="bold" font-style="oblique">
     <text fill="black" text-anchor="start" dy=".4em" transform="translate(96,288)">
      12
     </text>
    </g>
    <g font-family="Arial" font-size="14" space="preserve" font-weight="bold" font-style="oblique">
     <text fill="black" text-anchor="start" dy=".4em" transform="translate(96,416)">
      11
     </text>
    </g>
    <g font-family="Arial" font-size="14" space="preserve" font-weight="bold" font-style="oblique">
     <text fill="black" text-anchor="start" dy=".4em" transform="translate(96,525)">
      10
     </text>
    </g>
   </g>
  </g>
 </g>
</svg>

<svg xmlns="http://www.w3.org/2000/svg" viewBox="0 0 1200 800" preserveAspectRatio="none" width="1200" height="800">
 <path d="M0,0H1200V800H0Z" style="fill: white;"></path>
 <g>
  <g transform="translate(120,80)">
   <path d="M0,0H960V640H0Z" style="fill: white; stroke: black; stroke-width: 1;"></path>
   <g>
    <path d="M0,0v640M96,0v640M192,0v640M288,0v640M384,0v640M480,0v640M576,0v640M672,0v640M768,0v640M864,0v640M960,0v640" style="stroke: black; stroke-width: 1; stroke-dasharray: 1,2;"></path>
    <path d="M0,640h960M0,576h960M0,512h960M0,448h960M0,384h960M0,320h960M0,256h960M0,192h960M0,128h960M0,64h960M0,0h960" style="stroke: black; stroke-width: 1; stroke-dasharray: 1,2;"></path>
   </g>
   <g>
    <g transform="translate(0,640)">
     <path d="M0,0h960M0,-24V0M19,-12V0M38,-12V0M58,-12V0M77,-12V0M96,-24V0M115,-12V0M134,-12V0M154,-12V0M173,-12V0M192,-24V0M211,-12V0M230,-12V0M250,-12V0M269,-12V0M288,-24V0M307,-12V0M326,-12V0M346,-12V0M365,-12V0M384,-24V0M403,-12V0M422,-12V0M442,-12V0M461,-12V0M480,-24V0M499,-12V0M518,-12V0M538,-12V0M557,-12V0M576,-24V0M595,-12V0M614,-12V0M634,-12V0M653,-12V0M672,-24V0M691,-12V0M710,-12V0M730,-12V0M749,-12V0M768,-24V0M787,-12V0M806,-12V0M826,-12V0M845,-12V0M864,-24V0M883,-12V0M902,-12V0M922,-12V0M941,-12V0M960,-24V0" style="stroke: black; stroke-width: 1;"></path>
     <g font-family="Arial" font-size="28" space="preserve" fill="black" text-anchor="middle">
      <text dy=".8em" transform="translate(0,6)">
       0
      </text>
      <text dy=".8em" transform="translate(96,6)">
       0.1
      </text>
      <text dy=".8em" transform="translate(192,6)">
       0.2
      </text>
      <text dy=".8em" transform="translate(288,6)">
       0.3
      </text>
      <text dy=".8em" transform="translate(384,6)">
       0.4
      </text>
      <text dy=".8em" transform="translate(480,6)">
       0.5
      </text>
      <text dy=".8em" transform="translate(576,6)">
       0.6
      </text>
      <text dy=".8em" transform="translate(672,6)">
       0.7
      </text>
      <text dy=".8em" transform="translate(768,6)">
       0.8
      </text>
      <text dy=".8em" transform="translate(864,6)">
       0.9
      </text>
      <text dy=".8em" transform="translate(960,6)">
       1
      </text>
     </g>
    </g>
    <g>
     <path d="M0,0v640M36,640H0M18,627H0M18,614H0M18,602H0M18,589H0M36,576H0M18,563H0M18,550H0M18,538H0M18,525H0M36,512H0M18,499H0M18,486H0M18,474H0M18,461H0M36,448H0M18,435H0M18,422H0M18,410H0M18,397H0M36,384H0M18,371H0M18,358H0M18,346H0M18,333H0M36,320H0M18,307H0M18,294H0M18,282H0M18,269H0M36,256H0M18,243H0M18,230H0M18,218H0M18,205H0M36,192H0M18,179H0M18,166H0M18,154H0M18,141H0M36,128H0M18,115H0M18,102H0M18,90H0M18,77H0M36,64H0M18,51H0M18,38H0M18,26H0M18,13H0M36,0H0" style="stroke: black; stroke-width: 1;"></path>
     <g font-family="Arial" font-size="28" space="preserve" fill="black" text-anchor="end">
      <text dy=".4em" transform="translate(-4,640)">
       0
      </text>
      <text dy=".4em" transform="translate(-4,576)">
       0.1
      </text>
      <text dy=".4em" transform="translate(-4,512)">
       0.2
      </text>
      <text dy=".4em" transform="translate(-4,448)">
       0.3
      </text>
      <text dy=".4em" transform="translate(-4,384)">
       0.4
      </text>
      <text dy=".4em" transform="translate(-4,320)">
       0.5
      </text>
      <text dy=".4em" transform="translate(-4,256)">
       0.6
      </text>
      <text dy=".4em" transform="translate(-4,192)">
       0.7
      </text>
      <text dy=".4em" transform="translate(-4,128)">
       0.8
      </text>
      <text dy=".4em" transform="translate(-4,64)">
       0.9
      </text>
      <text dy=".4em" transform="translate(-4)">
       1
      </text>
     </g>
    </g>
   </g>
   <g>
    <g font-family="Arial" font-size="14" space="preserve" font-weight="bold">
     <text fill="black" text-anchor="start" dy=".8em" transform="translate(192,64)">
      K_{S}
     </text>
    </g>
    <g font-family="Arial" font-size="14" space="preserve" font-weight="bold">
     <text fill="black" text-anchor="start" dy=".8em" transform="translate(288,64)">
      K^{*0}
     </text>
    </g>
    <g font-family="Arial" font-size="14" space="preserve" font-weight="bold">
     <text fill="black" text-anchor="start" dy=".8em" transform="translate(192,128)">
      K_{S}... K^{*0}... #frac{2s}{#pi#alpha^{2}}#frac{d#sigma}{dcos#theta} (e^{+}e^{-} #rightarrow f#bar{f} ) =#left| #frac{1}{1 - #Delta#alpha} #right|^{2} (1+cos^{2}#theta)
     </text>
    </g>
    <g font-family="Arial" font-size="14" space="preserve" font-weight="bold">
     <text fill="black" text-anchor="start" dy=".4em" transform="translate(192,256)">
      K_{S}
     </text>
    </g>
    <g font-family="Arial" font-size="14" space="preserve" font-weight="bold">
     <text fill="black" text-anchor="start" dy=".4em" transform="translate(288,256)">
      K^{*0}
     </text>
    </g>
    <g font-family="Arial" font-size="14" space="preserve" font-weight="bold">
     <text fill="black" text-anchor="start" dy=".4em" transform="translate(192,320)">
      K_{S}... K^{*0}... #frac{2s}{#pi#alpha^{2}}#frac{d#sigma}{dcos#theta} (e^{+}e^{-} #rightarrow f#bar{f} ) =#left| #frac{1}{1 - #Delta#alpha} #right|^{2} (1+cos^{2}#theta)
     </text>
    </g>
    <g font-family="Arial" font-size="14" space="preserve" font-weight="bold">
     <text fill="black" text-anchor="start" transform="translate(192,384)">
      K_{S}
     </text>
    </g>
    <g font-family="Arial" font-size="14" space="preserve" font-weight="bold">
     <text fill="black" text-anchor="start" transform="translate(288,384)">
      K^{*0}
     </text>
    </g>
    <g font-family="Arial" font-size="14" space="preserve" font-weight="bold">
     <text fill="black" text-anchor="start" transform="translate(192,448)">
      K_{S}... K^{*0}... #frac{2s}{#pi#alpha^{2}}#frac{d#sigma}{dcos#theta} (e^{+}e^{-} #rightarrow f#bar{f} ) =#left| #frac{1}{1 - #Delta#alpha} #right|^{2} (1+cos^{2}#theta)
     </text>
    </g>
    <g font-family="Arial" font-size="14" space="preserve" font-weight="bold">
     <text fill="black" text-anchor="start" transform="translate(192,512)">
      K_{S}
     </text>
    </g>
    <g font-family="Arial" font-size="14" space="preserve" font-weight="bold">
     <text fill="black" text-anchor="start" transform="translate(288,512)">
      K^{*0}
     </text>
    </g>
    <g font-family="Arial" font-size="14" space="preserve" font-weight="bold">
     <text fill="black" text-anchor="start" transform="translate(192,576)">
      K_{S}... K^{*0}... #frac{2s}{#pi#alpha^{2}}#frac{d#sigma}{dcos#theta} (e^{+}e^{-} #rightarrow f#bar{f} ) =#left| #frac{1}{1 - #Delta#alpha} #right|^{2} (1+cos^{2}#theta)
     </text>
    </g>
    <g font-family="Arial" font-size="14" space="preserve" font-weight="bold" font-style="oblique">
     <text fill="black" text-anchor="start" dy=".4em" transform="translate(96,128)">
      13
     </text>
    </g>
    <g font-family="Arial" font-size="14" space="preserve" font-weight="bold" font-style="oblique">
     <text fill="black" text-anchor="start" dy=".4em" transform="translate(96,288)">
      12
     </text>
    </g>
    <g font-family="Arial" font-size="14" space="preserve" font-weight="bold" font-style="oblique">
     <text fill="black" text-anchor="start" dy=".4em" transform="translate(96,416)">
      11
     </text>
    </g>
    <g font-family="Arial" font-size="14" space="preserve" font-weight="bold" font-style="oblique">
     <text fill="black" text-anchor="start" dy=".4em" transform="translate(96,525)">
      10
     </text>
    </g>
   </g>
  </g>
 </g>
</svg>
